UI/Travel-Transport-Tracking/SVG/ferry-off_outline_24px.svg

<svg width="24" height="24" viewBox="0 0 24 24" fill="none" xmlns="http://www.w3.org/2000/svg">
<path d="M15.53 12.73L13.83 14.43L18.51 15.54L17.89 18.48C17.1338 18.1606 16.3209 17.9973 15.5 18C14.2471 17.9922 13.0232 18.3769 12 19.1C11.4157 18.6847 10.7622 18.3766 10.07 18.19L8.25 20H8.5C9.20822 19.9937 9.90543 20.1755 10.5204 20.5269C11.1353 20.8783 11.6459 21.3866 12 22C12.3584 21.3903 12.8699 20.8848 13.4838 20.5336C14.0977 20.1823 14.7927 19.9976 15.5 19.9976C16.2073 19.9976 16.9023 20.1823 17.5162 20.5336C18.1301 20.8848 18.6416 21.3903 19 22L21 14L15.53 12.73ZM3.45 16.3L6.66 13.09L3 14L3.45 16.3ZM17.23 11L19 11.35V9.26L17.23 11ZM15 2H13V4H7C6.46957 4 5.96086 4.21071 5.58579 4.58579C5.21071 4.96086 5 5.46957 5 6V11.38L6.9 11L9.21 10.54L11.76 8H11.61L7 8.94V6H13.75L15.75 4H15V2ZM3.43 22L2 20.57L20.57 2L22 3.43L3.43 22Z" fill="#0F1621"/>
</svg>

<svg xmlns="http://www.w3.org/2000/svg" width="24" height="24" viewBox="0 0 24 24"><rect width="24" height="24" style="fill:none"/><path d="M15.53,12.73l-1.7,1.7,4.68,1.11-.62,2.94A6.09,6.09,0,0,0,15.5,18,6,6,0,0,0,12,19.1a6.05,6.05,0,0,0-1.93-.91L8.25,20H8.5A4,4,0,0,1,12,22a4.06,4.06,0,0,1,7,0l2-8ZM3.45,16.3l3.21-3.21L3,14ZM17.23,11l1.77.35V9.26ZM15,2H13V4H7A2,2,0,0,0,5,6v5.38L6.9,11l2.31-.46L11.76,8l-.15,0L7,8.94V6h6.75l2-2H15ZM3.43,22,2,20.57,20.57,2,22,3.43Z"/></svg>
